X: 59
T: Roger's Wish
%%VWML:Wrights-3753-p30-0
F: http://www.vwml.org/record/Wrights/3753/p30
%R: reel
B: Daniel Wright "Wright's Compleat Collection of Celebrated Country Dances" 1740 p.30
S: http://library.efdss.org/cgi-bin/dancebooks.cgi
Z: 2014 John Chambers <jc:trillian.mit.edu>
N: Repeats adjusted to match the Note.
M: C|
L: 1/8
K: Dm
%-------------------------
|:\
D2d2 d2cB | AGFE D3E |\
FGAB c3d | cBAG F4 :|\
|:\
F2f2 f2ed | ^c2de A3A |
B2^G2 ABcd | e2E2 A4 |\ A2BA GBAG | F2D2 ^c3e |\ f2^c2 d2GB | AGFE D4 :| K: D
M: 3/4
|: "^Minuet"\
fe d2 A2 | TF4 E2 | D2 g2 f2 | e>d e4 |\
fdecdB | ^G2 B2 d2 | c2 TB4 | A4 :|
|:\
A2 e2 g2 | A2 d2 f2 | A2 g2 f2 | (f2 e2) A2 |\
G2 F2=c2 | B2 c2 d2 | g2 Te4 | d6 :| %-------------------------
%%begintext align
%% The 1st Cu. Back to Back with 2d Cu. & turn .| The 2d
%% Cu. do the same with the 1st Cu. :| The 1st Cu. cross over and %% half Figure thro' the 2d Cu. & turn .| Lead thro' the 3d Cu. & %% Cast up in the 2d Cu. Place & turn :| The 1st Man & 2d Wo. %% Dance the Minuet step .| 1st Wo. & 2d Man do the same :| %% The 1st & 2d Cu. Hands round into their Places .| The 1st
%% Man lead his Partner round into the 2d Cu. Place.
%%endtext
%%center Note. Each Strain is to be play'd twice over. %-------------------------
%%sep 2 4 300
T: Young's Wisdom
T: Longways for as many as will.
%R: reel
B: Daniel Wright "Wright's Compleat Collection of Celebrated Country Dances" 1740 p.30
S: http://library.efdss.org/cgi-bin/dancebooks.cgi
Z: 2014 John Chambers <jc:trillian.mit.edu>
N: The 2nd Strain has initial repeat but no final repeat; not fixed.
M: C|
L: 1/8
K: G
%-------------------------
D2 |\
G3A BABc | c4 d3g | d3c (cB)(AG) | A6 D2 |\
G3A BABc | d6 (dg) | (ag)(fe) (d2Bc) | d6 :|
|: f2 |\
(ag)(fe) (dc)(Bc) | d4 d3d | (ed)(cB) (cB)(AG) | TF6 D2 |\
G3A BABc | d4 d3g | d2(cB) (cB)(AG) | G6 |]
%-------------------------
%%begintext align
%% The 1st Cu. Hey the Man on the Wo. side & the
%% Wo. on the Mans .| Then Hey on their own sides :|
%% The 1st Cu. cross over and half Figure through
%% the 2d Cu. .| Then Right and Left with the
%% 2d Cu.
%%endtext
%-------------------------
%%sep 2 4 300
